!!!ONB: MCCC : IJH0468_04 : Extracted Monophonic Melody
!!!COM: Haydn, Joseph
!!!OPR: String Quartet in G minor
!!!OMV: 4
!!!SCT: Hob.III:74 ; Op.74 No.3
!!!ODT: 1793///
**kern
*thru
*k[b-e-]
*g:
*clefF
*M4/4
16G
16B-
=1
8d
8d
8r
8d
8r
8d
8r
8d
=2
16d
16e-
16d
16c#
8d
8d
8r
8d
8r
8d
=3
8d
8b-
2b-
8a
8g
=4
16f#
16g
16f#
16e
16f#
16d
16e
16f#
16g
16a
16b-
16cc
16dd
16cc
16b-
16a
=5
16g
16a
16g
16f#
16g
16a
16b-
16cc
16dd
16ee
16ff#
16gg
16ff#
16gg
16ff#
16gg
=6
8ff
4ee-
4dd
4cc
8b-[
=7
8b-]
4a
4b-
4a
8b-
=8
8a
8dd
8dd
8dd
4dd
8r
16G
16B-
=9
8d
8d
8r
8d
8r
8d
8r
8d
=10
16d
16e-
16d
16c#
8d
8d
8r
8d
8r
8d
=11
8d
8b-
2b-
8a
8g
=12
8f
8gg
2gg
8ff
8ee-
=13
8dd
4ff
4ff
16gg
16ff
16ee-
16dd
16cc
16b-
=14
8a
4ccc
4bb-
8aa
8gg
8ff
=15
8ff
4fff
4eee-
8ddd
8ccc
8bb-
=16
8aa
4gg
4ff
8ee-
8dd
8cc
=17
8b
16dd
16cc
8cc
16ee-
16dd
8dd
16ff
16ee-
8ee-
8gg
=18
2b-
4a
8r
16b-
16dd
=19
4ff
8dd
8bb-
4ff
8dd
8b-
=20
8a
8r
8cc
8r
8ee-
4r
8f
=21
16ff
16gg
16ff
16ee-
8dd
8bb-
16ff
16gg
16ff
16ee-
8dd
8b-
=22
16a
16b-
16a
16b-
16cc
16dd
16cc
16dd
4ee-
8r
8f
=23
16dd
16ee-
16dd
16cc
8b-
8dd
16ff
16gg
16ff
16ee-
8dd
8ff
=24
4ddd
16ccc
16bb-
16aa
16gg
4ff
8r
8ff
=25
8ee
8r
8ee-
8r
8dd
8r
4gg
=26
2b-[
8b-]
8a
8gg
8ff
=27
2ee-
4dd
8r
16b-
16dd
=28
4ff
8dd
8bb-
4ff
8dd
8b-
=29
8a
8r
8cc
8r
4ee-
8r
8f
=30
16ff
16gg
16ff
16ee-
8dd
8bb-
16ff
16gg
16ff
16ee-
8dd
8b-
=31
16a
16b-
16a
16b-
16cc
16dd
16cc
16dd
4ee-
8r
8e-
=32
16d
16b-
16ff
16gg
16ff
16bb-
16aa
16gg
16ff
16ee-
16dd
16cc
16b-
16a
16cc
16e-
=33
16d
16b-
16ff
16gg
16ff
16bb-
16aa
16gg
16ff
16ee-
16dd
16cc
16b-
16a
16cc
16e-
=34
16d
16b-
16ff
16ff
16e-
16b-
16gg
16gg
16d
16b-
16ff
16ff
16e-
16b-
16gg
16gg
=35
16ff
16bb-
16aa
16gg
16ff
16ee-
16dd
16cc
16b-
16ddd
16ccc
16bb-
16aa
16gg
16ff
16ee-
=36
16dd
16fff
16eee-
16ddd
16ccc
16bb-
16aa
16gg
16ff
16bbb-
16bbb-
16bbb-
16bbb-
16bbb-
16bbb-
16bbb-
=37
4bbb-
8r
8B
8B
8B
8B
8B
=38
2a-
8g
8c
8B
8B-
=39
2g-
8d
8B-
8A
8A-
=40
8G
16B-
16e-
8g
8b-
8ee-
8gg
8bb-
8gg
=41
4ff[
16ff]
16bb-
16aa
16gg
4ff[
16ff]
16bb-
16aa
16gg
=42
16ff
16gg
16ff
16ee
16ff
16bb-
16aa
16gg
16ff
16ee-
16dd
16cc
16b-
16a
16g
16f
=43
16e
16f
16e
16d
8e
8gg
16e-
16f
16e-
16d
8e-
8cc
=44
4d
2ff
4a
=45
16b-
16cc
16b-
16a
16b-
16ff
16ee-
16dd
16cc
16dd
16cc
16b
16cc
16gg
16ff
16ee-
=46
4dd
2fff
4eee-
=47
4ddd
2bbb-
4aaa-
=48
8fff#
8ggg
4.ggg
16fff#
16ggg
4bbb-[
=49
8bbb-]
16fff#
16ggg
8bbb-
16fff#
16ggg
8bbb-
16fff#
16ggg
8bbb-
8bbb-
=50
2bb-
8ccc
8bb-
8ccc
8ddd
=51
4bb-
4r
16a
16b-
16cc
16b-
16a
16ee-
16cc
16a
=52
4b-
4r
16aa
16bb-
16ccc
16bb-
16aa
16eee-
16ccc
16aa
=53
4bb-
4ddd
4bb-
8r
8r
=54
2r
4r
8r
16dd
16ee-
=55
4ff
8dd
8ddd
4bb
8gg
8ff
=56
1ee-[
=57
2..ee-]
16a-
16cc
=58
4dd-
8b-
8ddd-
4bb-
8gg
8dd-
=59
8cc
8e-
8r
8e-
8r
8e-
8r
8e-
=60
16e-
16f
16e-
16d
8e-
8e-
8r
8e-
8r
8e-
=61
8e-
8cc
2cc
8b-
8a-
=62
8g
8ff
2ff
16ee-
16dd-
16cc
16b-
=63
8a-
4gg-
4ff
8ee-
8dd-
8cc
=64
8dd-
4aa-
4gg-
8ff
8ee-
8dd-
=65
8b-
4aa-
4gg
8ff
8ee-
8dd
=66
8ee-
4bb-
4aa-
8gg
8ff
8ee-
=67
8dd-
4bb-
4ccc
4ddd-
8ee[
=68
8ee]
4ff
4gg
4aa-
8b[
=69
8b]
4cc
4ff
4ee
8b[
=70
8b]
8cc
2r
8r
16f
16a-
=71
8cc
8cc
8r
8cc
8r
8cc
8r
8cc
=72
16cc
16dd-
16cc
16b
8cc
8cc
4r
8r
8r
=73
1aa-
=74
2gg-
2r
=75
16ff
16gg-
16ff
16ee
8ff
8ff
4.r
16B-
16d-
=76
8f
8f
8r
8f
8r
8g-
8r
8g-
=77
16g-
16a-
16g-
16f
8g-
8g-
8r
8g
8r
8g
=78
16a-
16b-
16a-
16g
8a-
8a-
8r
8a
8r
8a
=79
16b-
16cc
16b-
16a
8b-
8b-
8r
8b
8r
8b
=80
16cc
16dd-
16cc
16b
8cc
8cc
16cc
16dd-
16cc
16b
8cc
8cc
=81
16cc
16dd-
16cc
16b
8cc
8cc
16cc
16dd-
16cc
16b
8cc
8cc
=82
16cc
16dd-
16cc
16b
8cc
8cc
16cc
16dd-
16cc
16b
8cc
8cc
=83
16ee-
16ff
16ee-
16dd
16ee-
16ff
16ee-
16dd
16ee-
16ff
16ee-
16dd
8ee-
8ee-
=84
4.ccc
16ff#
16aa
8ccc
16cc
16ff#
8aa
16a
16cc
=85
8ee-
16f#
16a
8cc
16e-
16f#
8a
16c
16e-
8f#
16A
16c
=86
4e-
8r
16A
16c
8e-
16A
16c
8e-
16A
16c
=87
4e-
2r
8r
16G
16B-
=88
8d
8d
8r
8d
8r
8d
8r
8d
=89
16d
16e-
16d
16c#
8d
8d
8r
8d
8r
8d
=90
8d
8b-
2b-
8a
8g
=91
16f#
16g
16f#
16e
16f#
16d
16e
16f#
16g
16a
16b-
16cc
16dd
16cc
16b-
16a
=92
16g
16a
16g
16f#
16g
16a
16b-
16cc
16dd
16ee
16ff#
16gg
16ff#
16gg
16ff#
16gg
=93
8ff
4ee-
4dd
4cc
8b-[
=94
8b-]
4a
4b-
4a
8b-
=95
8a
8r
8b-
8r
8cc
8r
8a
8r
=96
8b-
8r
8cc
8r
8dd
8r
8gg
8r
=97
8ff#
8r
8gg
8r
8aa
8r
8bb-
8r
=98
2ccc
2aa
=99
2.ff#
8r
16g
16b
=100
4dd
8b
8gg
4dd
8b
8g
=101
8f#
8r
8a
8r
8cc
4r
8d
=102
16dd
16ee
16dd
16cc
8b
8gg
16dd
16ee
16dd
16cc
8b
8g
=103
16f#
16g
16f#
16g
16a
16b
16a
16b
4cc
8r
8d
=104
16b
16cc
16b
16a
8g
8b
16dd
16ee
16dd
16cc
8b
8dd
=105
4bb
16aa
16gg
16ff#
16ee
4dd
8r
8dd
=106
8cc#
8r
8cc
8r
8b
8r
4ee
=107
2g[
8g]
8f#
8ee
8dd
=108
2cc
4b
4r
=109
2..r
16g
16b
=110
4cc
8a
8aa
4ff#
8cc
8a
=111
4b
2r
8r
16g
16b
=112
4cc
8a
8aa
4ff#
8cc
8a
=113
16b
16dd
16gg
16bb
16aa
16gg
16ff#
16ee
16dd
16b
16cc
16b
16cc
16a
16f#
16d
=114
16b
16dd
16gg
16bb
16aa
16gg
16ff#
16ee
16dd
16b
16cc
16b
16cc
16a
16f#
16d
=115
8dd
8B
8c
8ee
8dd
8B
8c
8ee
=116
16dd
16gg
16ff#
16ee
16dd
16cc
16b
16a
16g
16bb
16aa
16gg
16ff#
16ee
16dd
16cc
=117
16b
16ddd
16ccc
16bb
16aa
16gg
16ff#
16ee
16dd
16ggg
16ggg
16ggg
16ggg
16ggg
16ggg
16ggg
=118
4ggg
8r
8G#
8G#
8G#
8G#
8G#
=119
2f
8e
8A
8G#
8A
=120
2e-
8d
8g
8f#
8f
=121
8e
8f#
8g
8g#
8a
8b
8cc
8a
=122
8f#
8g
8a
8b
8cc
8dd
8ee
8cc
=123
4b
2dd
4f#
=124
16g
16a
16g
16f#
16g
16b
16dd
16b
16a
16b
16a
16b
16a
16ee
16dd
16cc
=125
4b
2ddd
4ccc
=126
4bb
2ggg
4fff
=127
8ddd#
8eee
4.eee
16ddd#
16eee
4ggg[
=128
8ggg]
16ddd#
16eee
8ggg
16ddd#
16eee
8ggg
16ddd#
16eee
16ggg
16eee
16ccc
16aa
=129
2gg
8aa
8gg
8aa
8bb
=130
4gg
4ccc
2r
=131
8dd
4ccc
4bb
8aa
8gg
8ff#
=132
8dd
4ddd
4ccc
8bb
8aa
8gg
=133
8aa
8r
8bb
8r
8ccc
4.r
=134
8bb
8r
8ccc
8r
8ddd
4.r
=135
8ee
4eee
4ddd
8ccc
8bb
8aa
=136
2gg
8aa
8gg
8aa
8bb
=137
4gg
2.r
=138
2r
16dd
16ee
16dd
16cc#
8dd
8dd
=139
2r
16dd
16ee
16dd
16cc#
8dd
8dd
=140
8aa
8r
8bb
8r
8ccc
4.r
=141
8bb
8r
8ccc
8r
8ddd
4.r
=142
8ee
4eee
4ddd
8ccc
8bb
8aa
=143
2gg
8aa
8gg
8aa
8bb
=144
4gg
4r
16f#
16g
16a
16g
16f#
16cc
16a
16f#
=145
4g
4r
16ff#
16gg
16aa
16gg
16ff#
16ccc
16aa
16ff#
=146
4gg
4gg
4gg
4r
==
*-
